X:1
T:Espoir m'a tenu
T:Roquelay
T:Source : Livre premier contenant 29 chansons nouvelles à 4 parties---Paris---P.Attaignant---1535. Editor : André Vierendeels (13/12/17) Notes : Original clefs : C1, C3, C4, F4 Original note values have been halved Editorial accidentals above the staff 
T:Espoir m'a tenu
T:©
T:©
T:©
C:Roquelay
Z:©
%%score [ 1 [ 2 3 ] 4 ]
L:1/8
Q:1/4=120
M:2/2
K:C
V:1 treble nm="Soprano" snm="S"
V:2 treble-8 nm="Tenor 1" snm="T 1"
V:3 treble-8 nm="Tenor 2" snm="T 2"
V:4 bass nm="Bass" snm="B"
V:1
 A4 F2 F2 | G4 A4 | z2 A2 F2 F2 | G4 A2 A2- | A2 F2 BAGF | EC c4 B2- | BA A4 G2 | A4 z2 A2 | %8
w: Es- poir m'a|te- nu,|es- poir m'a|tenu lan- guis-||||sant, sans|
 A2 A2 c3 B/A/ | G2 A2 E2 E2 | G3 A BA c2- | c2 BA G4 | z2 G2 c2 B2 | G3 F E4 | z2 G2 c4 | %15
w: es- tre dict _ _|_ _ _ ia-|mais _ _ _ duy-|* * * sant|à ma- my-|* * e,|à ma-|
 B2 G3 A B/A/B/c/ | BA B2 G2 c2- | c2 BA G2 E2 | G2 F2 E3 E | E2 E2 C2 E2 | A3 A G2 E2 | %21
w: my- * * * * * *||* * * e, que|pour ne- ant ne|la ler- ray, que|pour ne- ant ne|
 F2 F2 EDEF | GA B3 A A2- | A2 G2 A4 | z2 E2 E2 E2 | G3 A BA c2- | c2 BA GFGA | Bc d3 c c2- | %28
w: la ler- ray _ _ _|du- * rant ma vi-|* * e,|en- vy- e'a|faict _ _ _ tout|_ _ _ _ _ _ _|* * ce- * *|
 c2 B2 c2 A2 | A2 A2 G4 | z2 A2 A2 A2 | G2 G2 A3 B | c2 B3 A A2- |"^#" A2 G2 A2 A2 | A2 A2 G4 | %35
w: * pen- dant, les|en- nuy- eulx,|les en- nuy-|eulx n'ont plus de|ly- * * *|* * e, les|en- nuy- eulx,|
 z2 A2 A2 A2 | G2 G2 A3 B | c2 B3 A A2- |"^#" A2 G2 A4- | A8 |] %40
w: les en- nuy-|eulx n'ont plus de|ly- * * *|* * e.|_|
V:2
 z4 d4 | e2 e2 f4 | e2 f4 d2 | e4 f4 | f4 d4 | g4 g3 f | e2 d2 e4 |"^#" c2 e2 f2 f2 | e2 A2 e2 c2 | %9
w: Es-|poir m'a te-|nu lan- guis-|sant, l'es-|poir m'a|te- nu _|_ lan- guis-|sant, sans es- tre|dict ia- mais duy-|
 e4 z2 e2- | e2 e2 d2 e2 | c2 d2 e2 e2 | g2 e2 c2 e2- | e2 dc B2 c2 | A2 B2 c2 A2 | e3 d ef g2- | %16
w: sant à|_ ma- my- *|* * e, a|ma- my- * *||* * e, que|pour ne- ant _ _|
 g2 G2 c4 | A4 e4- | e2 dc B2 c2- | c2 BA G4 | z2 A2 e3 e | d2 A2 c2 c2 |"^-natural" B2 G2 ABcd | %23
w: _ ne la|ler- *||* * * ray,|que pour ne-|ant ne la ler-|ray du- rant _ _ _|
 ef e4 dc | B4 A2 e2 | e2 e2 g2 e2 | c3 d e4 | z2 g2 e2 f2 | g4 e2 c2 | f2 f2 e4 | z2 c2 f2 f2 | %31
w: ma _ vie- * *|* e, en-|vy- e'a faict tout|ce- pen- dant,|tout ce- pen-|* dant, les|en- nuy- eulx|les en- nuy-|
 e2 e2 c3 B/A/ | G2 B2 c2 d2 | e4 z2 c2 | f2 f2 e4 | z2 c2 f2 f2 | e2 e2 c3 B/A/ | G2 B2 c2 d2 | %38
w: eulx n'ont plus- * *|* de ly- *|e, les|en- nuy- eulx,|les en- nuy-|eulx n'ont plus _ _|_ de ly- *|
 e4 c4- | c8 |] %40
w: * e.|_|
V:3
 z4 A4 | c2 c2 c4 | A4 z2 A2 | c2 c2 c4 | A2 d4 B2 | e3 d cB d2- | dcBA B4 | A2 c2 d2 d2 | %8
w: Es-|poir m'a te-|nu, es-|poir m'a te-|nu lan- *||* * * * guis-|sant, sans es- tre|
 c4 z2 A2 | c3 B A2 A2 | G4 z2 G2 | A2 A2 B2 c2- | c2 BA G2 G2 | c2 B2 G2 A2- | A2 G2 A2 E2 | %15
w: dict ia-|mais _ _ duy-|sant, à|ma- my- * *|* * * e, à|ma- my- * *||
 G2 E2 C2 d2 | d2 d2 e3 d | c2 d2 B2 c2- | cB A4 G2 | A2 A2 B3 c | d2 A2 c2 c2 | _B2 A2 z2 A2 | %22
w: * * e, que|pour ne- ant ne|la ler- * *||ray du- rant _|_ _ _ ma|vi- e, du-|
 e3 e d2 A2 | B2 c3 B A2- | A2 G2 A4 | B2 B2 G2 A2- | A2 A2 B2 c2 | d2 B2 c4 | d4 c4 | %29
w: rant _ _ ma|vi- * * *|* * e,|en- vy- e'a faict|_ tout ce- *|* * pen-|* dant,|
 z2 c2 c2 c2 | A4 z2 c2 | c2 c2 ABcd | e2 d3 cBA | B4 A4 | z2 c2 c2 c2 | A4 z2 c2 | c2 c2 ABcd | %37
w: les en- nuy-|eulx, les|en- nuy- eulx _ _ _|n'ont plus de _ _|ly- e,|les en- nuy-|eulx, les|en- nuy- eulx _ _ _|
 e2 d3 cBA | B4 A4- | A8 |] %40
w: n'ont plus de _ _|ly- e.|_|
V:4
 D,4 D,2 D,2 | C,4 F,4 | z2 D,4 D,2 | C,2 C,2 F,2 F,2- | F,2 D,2 G,4 | C,3 D, E,F, G,2 | %6
w: Es- poir m'a|te- nu,|es- poir|m'a te- nu lan-|||
 A,2 F,2 E,4 | A,,2 A,2 D,2 D,2 | A,8 | z2 A,2 C4 | z2 E,2 G,2 C,2 | F,4 E,4- | E,8- | E,4 z2 C,2 | %14
w: * * guis-|sant, sans es- tre|dict|ia- mais|ia- mais _|duy- sant,|_|* à|
 F,2 E,2 A,,4 | z2 G,2 C2 B,2 | G,4 z2 C,2 | F,3 F, E,4 | C,2 D,2 E,4 | A,,2 A,,2 E,3 E, | D,4 z4 | %21
w: ma- my- e,|a ma- my-|e, que|pour ne- ant|ne la ler-|ray, ne la ler-|ray,|
 z2 D,2 A,3 A, | G,2 E,2 F,2 F,2 | E,2 E,2 A,,B,,C,D, | E,4 A,,4 | z2 E,2 E,2 C,2 | %26
w: que pour ne-|ant ne la ler-|ray du- rant _ _ _|ma vie,|en- vy- e'a|
 F,2 F,2 E,2 C,2 | G,4 A,4 | G,4 C,2 F,2 | F,2 F,2 C,4 | z2 F,2 F,2 F,2 | C,2 C,2 F,4 | %32
w: faict tout ce- pen-|dant, ce-|pen- dant, les|en- nuy- eulx,|les en- nuy-|eulx n'ont plus|
 E,2 G,2 A,2 F,2 | E,4 A,,2 F,2 | F,2 F,2 C,4 | z2 F,2 F,2 F,2 | C,2 C,2 F,4 | E,2 G,2 A,2 F,2 | %38
w: de ly- * *|* e, les|en- nuy- eulx,|les en- nuy-|eulx n'ont plus|de ly- * *|
 E,4 A,,4- | A,,8 |] %40
w: * e.|_|

